X:1
T:Crucifixion
%%score 1 2 3
L:1/8
M:2/2
K:F
V:1 treble nm="Soprano" snm="S."
V:2 treble-8 nm="Tenor" snm="T."
V:3 bass nm="Bass" snm="B."
V:1
 A2 A2 F2 D2 | d2 B2 A2 z2 | G2 A2 (B<A)(G<F) | E2 D2 ^C2 z2 | A2 A2 F2 D2 | d2 =B2 ^G2 z2 | %6
 e2 e2 d2 c2 | (c<=B)(A<^G) A2 z2 | c2 c2 B2 F2 | E2 F2 G2 z2 | G2 B2 A2 d2 | F2 (E>D) E2 z2 | %12
 c2 c2 A2 F2 | E2 F2 G2 z2 | c2 c2 (d<A)(BA/G/) | F2 E2 D4 |] %16
V:2
 f2 e2 d2 f2 | g2 e2 f2 z2 | g2 f2 e2 a2 | g2 f2 e2 z2 | f2 e2 d2 f2 | f2 d2 =B2 z2 | %6
 c2 =B2 A2 d2 | (e<d)(c<B) c2 z2 | f2 g2 c2 =B2 | c2 (ag/f/) e2 z2 | d2 d2 d2 B2 | %11
 (Ad)(c>=B) c2 z2 | f2 g2 c2 =B2 | c2 (ag/f/) e2 z2 | e2 e2 a2 (gf/e/) | d2 ^c2 d4 |] %16
V:3
 D,2 ^C,2 D,2 D,2 | B,,2 C,2 F,2 z2 | E,2 D,2 ^C,2 D,2 | G,,2 ^G,,2 A,,2 z2 | D,2 ^C,2 D,2 =C,2 | %5
 =B,,2 D,2 E,2 z2 | A,2 ^G,2 A,2 F,2 | E,2 E,2 A,,2 z2 | F,2 E,2 F,2 D,2 | C,2 F,2 C,2 z2 | %10
 G,2 G,2 F,2 G,2 | A,2 A,,2 A,,2 z2 | F,2 E,2 F,2 D,2 | C,2 F,2 C,2 z2 | A,2 G,2 F,2 G,2 | %15
 A,2 A,,2 D,4 |] %16

